X: 33050
T: Pride Of Petravore, The
R: hornpipe
M: 4/4
K: Eminor
B,2|:"Em"E3F G3A|"Em"B>cBA G2 E2|"D"D3E F3G|"D"A>BAG F2 D2|
"Em" E3F G3A|"Em"B>cBA GFGA|"Bm7"B2Bc BAGF|1 "Em" E2(3FED E2B,D:|2 "Em"E2(3FED E2B/c/d||
|:"C" [c2e2] [c2e2] [c3e3] [ce]|"Em"d>BG>A B2Bc|"Bm7"B>AFG A2AB|"D"A>GFG "Em"E2 B/c/d|
"C"[c2e2]ef gfge|"Bm7"d>BG>A B2GA|"Em"B2Bc "Bm7"B>AFG|1 "Em"E2(3FED E2 B/c/d:|2 "Em"E2(3FED E4||

